image/icons-main-page/food.svg

<svg width="76" height="73" viewBox="0 0 76 73" fill="none" xmlns="http://www.w3.org/2000/svg">
<path d="M70.5499 48.2H4.7499C2.4499 48.2 0.649902 50.1 0.649902 52.5V56C0.649902 58.4 2.5499 60.3 4.7499 60.3H5.6499V61.4C5.6499 66.9 9.9499 71.5 15.2499 71.5H59.8499C65.1499 71.5 69.4499 67 69.4499 61.4V60.3H70.3499C72.6499 60.3 74.4499 58.4 74.4499 56V52.5C74.6499 50.2 72.7499 48.2 70.5499 48.2ZM66.6499 61.4C66.6499 65.3 63.6499 68.4 59.9499 68.4H15.2499C11.5499 68.4 8.5499 65.2 8.5499 61.4V60.3H66.6499V61.4ZM71.7499 56C71.7499 56.7 71.1499 57.3 70.5499 57.3H4.6499C3.9499 57.3 3.4499 56.7 3.4499 56V52.5C3.4499 51.8 4.0499 51.2 4.6499 51.2H70.4499C71.1499 51.2 71.6499 51.8 71.6499 52.5C71.7499 52.5 71.7499 56 71.7499 56Z" fill="#83B3D3"/>
<path d="M16.2499 39.9L21.6499 44L26.9499 39.9L32.2499 44L37.5499 39.9L42.9499 44L48.2499 39.9L53.5499 44L58.9499 39.9L64.2499 44L70.4499 39.3L68.7499 36.8L64.2499 40.2L58.9499 36.1L53.5499 40.2L48.2499 36.1L42.9499 40.2L37.5499 36.1L32.2499 40.2L26.9499 36.1L21.6499 40.2L16.2499 36.1L10.9499 40.2L6.4499 36.8L4.7499 39.3L10.9499 44L16.2499 39.9Z" fill="#83B3D3"/>
<path d="M8.6499 33H69.4499C69.4499 32.4 69.5499 31.8 69.5499 31.1C69.5499 30.7 69.5499 30.3 69.5499 29.9C68.8499 14.2 54.8499 1.5 37.6499 1.5C20.3499 1.5 6.3499 14.2 5.6499 30C5.6499 30.4 5.6499 30.8 5.6499 31.2C5.6499 31.8 5.6499 32.5 5.7499 33.1H8.6499V33ZM37.6499 4.5C53.2499 4.5 66.0499 15.8 66.6499 30H8.6499C9.2499 15.9 22.0499 4.5 37.6499 4.5Z" fill="#83B3D3"/>
<path d="M37.6499 18.8C38.6992 18.8 39.5499 17.9046 39.5499 16.8C39.5499 15.6954 38.6992 14.8 37.6499 14.8C36.6006 14.8 35.7499 15.6954 35.7499 16.8C35.7499 17.9046 36.6006 18.8 37.6499 18.8Z" fill="#83B3D3"/>
<path d="M29.8499 13.7C30.8992 13.7 31.7499 12.8046 31.7499 11.7C31.7499 10.5954 30.8992 9.7 29.8499 9.7C28.8006 9.7 27.9499 10.5954 27.9499 11.7C27.9499 12.8046 28.8006 13.7 29.8499 13.7Z" fill="#83B3D3"/>
<path d="M45.3499 13.7C46.3992 13.7 47.2499 12.8046 47.2499 11.7C47.2499 10.5954 46.3992 9.7 45.3499 9.7C44.3006 9.7 43.4499 10.5954 43.4499 11.7C43.4499 12.8046 44.3006 13.7 45.3499 13.7Z" fill="#83B3D3"/>
</svg>

<svg width="76" height="73" fill="none" xmlns="http://www.w3.org/2000/svg"><path d="M70.55 48.2H4.75c-2.3 0-4.1 1.9-4.1 4.3V56c0 2.4 1.9 4.3 4.1 4.3h.9v1.1c0 5.5 4.3 10.1 9.6 10.1h44.6c5.3 0 9.6-4.5 9.6-10.1v-1.1h.9c2.3 0 4.1-1.9 4.1-4.3v-3.5a4 4 0 0 0-3.9-4.3Zm-3.9 13.2c0 3.9-3 7-6.7 7h-44.7c-3.7 0-6.7-3.2-6.7-7v-1.1h58.1v1.1Zm5.1-5.4c0 .7-.6 1.3-1.2 1.3H4.65c-.7 0-1.2-.6-1.2-1.3v-3.5c0-.7.6-1.3 1.2-1.3h65.8c.7 0 1.2.6 1.2 1.3.1 0 .1 3.5.1 3.5ZM16.25 39.9l5.4 4.1 5.3-4.1 5.3 4.1 5.3-4.1 5.4 4.1 5.3-4.1 5.3 4.1 5.4-4.1 5.3 4.1 6.2-4.7-1.7-2.5-4.5 3.4-5.3-4.1-5.4 4.1-5.3-4.1-5.3 4.1-5.4-4.1-5.3 4.1-5.3-4.1-5.3 4.1-5.4-4.1-5.3 4.1-4.5-3.4-1.7 2.5 6.2 4.7 5.3-4.1ZM8.65 33h60.8c0-.6.1-1.2.1-1.9v-1.2c-.7-15.7-14.7-28.4-31.9-28.4-17.3 0-31.3 12.7-32 28.5v1.2c0 .6 0 1.3.1 1.9h2.9V33Zm29-28.5c15.6 0 28.4 11.3 29 25.5h-58c.6-14.1 13.4-25.5 29-25.5Z" fill="#83B3D3"/><path d="M37.65 18.8c1.05 0 1.9-.9 1.9-2s-.85-2-1.9-2c-1.05 0-1.9.9-1.9 2s.85 2 1.9 2ZM29.85 13.7c1.05 0 1.9-.9 1.9-2s-.85-2-1.9-2c-1.05 0-1.9.9-1.9 2s.85 2 1.9 2ZM45.35 13.7c1.05 0 1.9-.9 1.9-2s-.85-2-1.9-2c-1.05 0-1.9.9-1.9 2s.85 2 1.9 2Z" fill="#83B3D3"/></svg>
